X:44
T:Toormore
Z: id:dc-polka-35
M:2/4
L:1/8
K:D Major
z|ef/e/ dB|BA B/c/d|ef/e/ dB|BA A2|!
ef/e/ dB|BA B/c/d|ab/a/ gc|ed d:|!
e|f>e fA|B/c/d ef|g>f ga|ba f/g/a|!
f>e fA|B/c/d ef|ab/a/ gc|ed d:|!